;Generated by Cura LulzBot Edition GCodeWriter Version: 3.6.8
;FLAVOR:Marlin
;TIME:1295
;Filament used: 0.365784m
;Layer height: 0.14
;Generated with Cura_SteamEngine 3.6.8
M82 ;absolute extrusion mode
M221 S100
;This G-Code has been generated specifically for the LulzBot TAZ 6 with standard extruder
M73 P0 ; clear GLCD progress bar
M75 ; start GLCD timer
G26 ; clear potential 'probe fail' condition
M107 ; disable fans
M420 S0 ; disable previous leveling matrix
G90 ; absolute positioning
M82 ; set extruder to absolute mode
G92 E0 ; set extruder position to 0
M140 S60 ; start bed heating up
M109 R140 ; soften filament before homing Z
G28 ; Home all axis
G1 E-30 F100 ; retract filament
M109 R140 ; wait for extruder to reach wiping temp
G1 X-15 Y100 F3000 ; move above wiper pad
G1 Z1 ; push nozzle into wiper
G1 X-17 Y95 F1000 ; slow wipe
G1 X-17 Y90 F1000 ; slow wipe
G1 X-17 Y85 F1000 ; slow wipe
G1 X-15 Y90 F1000 ; slow wipe
G1 X-17 Y80 F1000 ; slow wipe
G1 X-15 Y95 F1000 ; slow wipe
G1 X-17 Y75 F2000 ; fast wipe
G1 X-15 Y65 F2000 ; fast wipe
G1 X-17 Y70 F2000 ; fast wipe
G1 X-15 Y60 F2000 ; fast wipe
G1 X-17 Y55 F2000 ; fast wipe
G1 X-15 Y50 F2000 ; fast wipe
G1 X-17 Y40 F2000 ; fast wipe
G1 X-15 Y45 F2000 ; fast wipe
G1 X-17 Y35 F2000 ; fast wipe
G1 X-15 Y40 F2000 ; fast wipe
G1 X-17 Y70 F2000 ; fast wipe
G1 X-15 Y30 Z2 F2000 ; fast wipe
G1 X-17 Y35 F2000 ; fast wipe
G1 X-15 Y25 F2000 ; fast wipe
G1 X-17 Y30 F2000 ; fast wipe
G1 X-15 Y25 Z1.5 F1000 ; slow wipe
G1 X-17 Y23 F1000 ; slow wipe
G1 Z10 ; raise extruder
M109 R140 ; wait for extruder to reach probe temp
G1 X-9 Y-9 ; move above first probe point
M204 S100 ; set probing acceleration
G29 ; start auto-leveling sequence
M420 S1 ; activate bed level matrix
M425 Z			     ; use measured Z backlash for compensation
M425 Z F0		     ; turn off measured Z backlash compensation. (if activated in the quality settings, this command will automatically be ignored)
M204 S500 ; restore standard acceleration
G1 X0 Y0 Z15 F5000 ; move up off last probe point
G4 S1 ; pause
M400 ; wait for moves to finish
M117 Heating... ; progress indicator message on LCD
M109 R200 ; wait for extruder to reach printing temp
M190 S60 ; wait for bed to reach printing temp
G1 Z2 E0 F75 ; prime tiny bit of filament into the nozzle
M117 TAZ 6 Printing... ; progress indicator message on LCD

G92 E0
G1 F600 E-1
;LAYER_COUNT:41
;LAYER:0
M107
G0 F2625 X117.496 Y117.624 Z0.425
;TYPE:SKIRT
G1 F600 E0
G1 F900 X118.993 Y116.213 E0.06852
G1 X119.2 Y116.032 E0.07768
G1 X120.805 Y114.728 E0.14657
G1 X121.027 Y114.561 E0.15582
G1 X122.707 Y113.391 E0.22402
G1 X122.937 Y113.243 E0.23313
G1 X124.704 Y112.195 E0.30156
G1 X124.94 Y112.066 E0.31052
G1 X126.704 Y111.184 E0.37622
G1 X126.953 Y111.071 E0.38532
G1 X128.878 Y110.278 E0.45467
G1 X129.136 Y110.182 E0.46384
G1 X131.058 Y109.551 E0.53123
G1 X131.354 Y109.467 E0.54148
G1 X134.029 Y108.826 E0.6331
G1 X134.452 Y108.75 E0.64742
G1 X137.775 Y108.347 E0.75892
G1 X138.127 Y108.321 E0.77068
G1 X140.217 Y108.266 E0.84032
G1 X140.493 Y108.269 E0.84952
G1 X142.5 Y108.364 E0.91645
G1 X142.771 Y108.387 E0.9255
G1 X144.83 Y108.635 E0.99459
G1 X145.141 Y108.686 E1.00508
G1 X147.821 Y109.24 E1.09624
G1 X148.174 Y109.331 E1.10839
G1 X150.592 Y110.082 E1.19273
G1 X150.883 Y110.185 E1.20301
G1 X152.827 Y110.969 E1.27283
G1 X153.07 Y111.078 E1.2817
G1 X154.826 Y111.936 E1.34681
G1 X155.061 Y112.061 E1.35567
G1 X156.791 Y113.064 E1.42228
G1 X157.026 Y113.212 E1.43153
G1 X158.744 Y114.386 E1.50085
G1 X158.964 Y114.549 E1.50997
G1 X160.565 Y115.824 E1.57814
G1 X160.773 Y116.002 E1.58726
G1 X162.279 Y117.393 E1.65555
G1 X162.474 Y117.587 E1.66471
G1 X163.868 Y119.078 E1.73271
G1 X164.05 Y119.288 E1.74196
G1 X165.354 Y120.908 E1.81124
G1 X165.517 Y121.126 E1.8203
G1 X166.67 Y122.793 E1.88782
G1 X166.819 Y123.026 E1.89703
G1 X167.874 Y124.821 E1.96639
G1 X168.002 Y125.057 E1.97533
G1 X168.874 Y126.818 E2.04079
G1 X168.982 Y127.058 E2.04955
G1 X169.726 Y128.87 E2.1148
G1 X169.819 Y129.121 E2.12372
G1 X170.455 Y131.053 E2.19147
G1 X170.531 Y131.316 E2.20059
G1 X171.027 Y133.298 E2.26865
G1 X171.084 Y133.565 E2.27774
G1 X171.429 Y135.548 E2.34479
G1 X171.465 Y135.817 E2.35383
G1 X171.67 Y137.863 E2.42232
G1 X171.688 Y138.14 E2.43157
G1 X171.741 Y140.182 E2.49961
G1 X171.738 Y140.456 E2.50874
G1 X171.64 Y142.531 E2.57794
G1 X171.617 Y142.803 E2.58703
G1 X171.374 Y144.819 E2.65467
G1 X171.335 Y145.069 E2.6631
G1 X171.013 Y146.766 E2.72063
G1 X170.932 Y147.107 E2.73231
G1 X169.995 Y150.354 E2.84488
G1 X169.88 Y150.692 E2.85677
G1 X169.125 Y152.603 E2.92522
G1 X169.015 Y152.853 E2.93431
G1 X168.13 Y154.69 E3.00224
G1 X168.003 Y154.932 E3.01134
G1 X166.99 Y156.693 E3.07901
G1 X166.822 Y156.958 E3.08946
G1 X165.225 Y159.264 E3.1829
G1 X165.024 Y159.528 E3.19395
G1 X163.744 Y161.066 E3.26061
G1 X163.562 Y161.269 E3.26969
G1 X162.132 Y162.753 E3.33834
G1 X161.936 Y162.943 E3.34743
G1 X160.416 Y164.306 E3.41543
G1 X160.205 Y164.481 E3.42457
G1 X158.59 Y165.729 E3.49255
G1 X158.367 Y165.889 E3.5017
G1 X156.677 Y167.008 E3.56921
G1 X156.445 Y167.15 E3.57827
G1 X154.645 Y168.162 E3.64706
G1 X154.399 Y168.288 E3.65626
G1 X152.529 Y169.165 E3.72506
G1 X152.273 Y169.274 E3.73433
G1 X150.359 Y170.004 E3.80257
G1 X150.101 Y170.092 E3.81165
G1 X148.162 Y170.674 E3.87908
G1 X147.904 Y170.741 E3.88796
G1 X145.917 Y171.186 E3.95579
G1 X145.548 Y171.25 E3.96827
G1 X142.225 Y171.653 E4.07977
G1 X141.873 Y171.679 E4.09152
G1 X139.783 Y171.734 E4.16117
G1 X139.507 Y171.731 E4.17036
G1 X137.5 Y171.636 E4.23729
G1 X137.229 Y171.613 E4.24635
G1 X135.17 Y171.365 E4.31543
G1 X134.859 Y171.314 E4.32593
G1 X132.179 Y170.76 E4.41709
G1 X131.824 Y170.669 E4.4293
G1 X129.39 Y169.912 E4.5142
G1 X129.1 Y169.808 E4.52447
G1 X127.165 Y169.027 E4.59397
G1 X126.922 Y168.919 E4.60283
G1 X125.173 Y168.064 E4.66768
G1 X124.939 Y167.939 E4.67652
G1 X123.209 Y166.936 E4.74313
G1 X122.974 Y166.788 E4.75238
G1 X121.256 Y165.614 E4.82169
G1 X121.036 Y165.451 E4.83081
G1 X119.435 Y164.176 E4.89899
G1 X119.227 Y163.998 E4.90811
G1 X117.721 Y162.607 E4.9764
G1 X117.526 Y162.413 E4.98556
G1 X116.131 Y160.921 E5.0536
G1 X115.944 Y160.706 E5.06309
G1 X114.596 Y159.025 E5.13487
G1 X114.436 Y158.809 E5.14382
G1 X113.328 Y157.204 E5.20878
G1 X113.18 Y156.972 E5.21795
G1 X112.127 Y155.178 E5.28724
G1 X112.002 Y154.946 E5.29602
G1 X111.128 Y153.184 E5.36154
G1 X111.018 Y152.942 E5.37039
G1 X110.274 Y151.13 E5.43564
G1 X110.181 Y150.879 E5.44456
G1 X109.545 Y148.947 E5.51231
G1 X109.469 Y148.684 E5.52143
G1 X108.973 Y146.702 E5.58949
G1 X108.916 Y146.435 E5.59858
G1 X108.571 Y144.452 E5.66563
G1 X108.535 Y144.183 E5.67467
G1 X108.33 Y142.137 E5.74316
G1 X108.312 Y141.86 E5.75241
G1 X108.259 Y139.818 E5.82045
G1 X108.262 Y139.544 E5.82958
G1 X108.36 Y137.469 E5.89878
G1 X108.383 Y137.197 E5.90787
G1 X108.626 Y135.181 E5.97551
G1 X108.665 Y134.931 E5.98394
G1 X108.987 Y133.234 E6.04147
G1 X109.068 Y132.893 E6.05315
G1 X110.005 Y129.646 E6.16572
G1 X110.12 Y129.308 E6.17761
G1 X110.875 Y127.397 E6.24606
G1 X110.985 Y127.147 E6.25515
G1 X111.87 Y125.31 E6.32308
G1 X111.997 Y125.068 E6.33218
G1 X113.01 Y123.307 E6.39985
G1 X113.154 Y123.077 E6.40889
G1 X114.302 Y121.379 E6.47717
G1 X114.467 Y121.154 E6.48646
G1 X115.769 Y119.506 E6.55642
G1 X115.949 Y119.295 E6.56566
G1 X117.306 Y117.817 E6.6325
G1 X117.496 Y117.624 E6.64152
G0 F2625 X117.839 Y117.988
G1 F900 X119.336 Y116.577 E6.71004
G1 X119.516 Y116.42 E6.718
G1 X121.121 Y115.116 E6.78688
G1 X121.313 Y114.971 E6.7949
G1 X122.993 Y113.801 E6.86309
G1 X123.192 Y113.673 E6.87097
G1 X124.959 Y112.625 E6.93941
G1 X125.164 Y112.513 E6.94719
G1 X126.928 Y111.631 E7.01288
G1 X127.143 Y111.533 E7.02075
G1 X129.068 Y110.74 E7.0901
G1 X129.292 Y110.657 E7.09806
G1 X131.214 Y110.026 E7.16545
G1 X131.471 Y109.953 E7.17435
G1 X134.146 Y109.312 E7.26597
G1 X134.512 Y109.247 E7.27836
G1 X137.835 Y108.844 E7.38986
G1 X138.141 Y108.821 E7.40008
G1 X140.231 Y108.766 E7.46972
G1 X140.47 Y108.769 E7.47768
G1 X142.477 Y108.864 E7.54461
G1 X142.712 Y108.883 E7.55247
G1 X144.771 Y109.131 E7.62155
G1 X145.04 Y109.175 E7.63063
G1 X147.72 Y109.729 E7.72179
G1 X148.026 Y109.808 E7.73231
G1 X150.444 Y110.559 E7.81665
G1 X150.696 Y110.649 E7.82557
G1 X152.64 Y111.433 E7.89539
G1 X152.851 Y111.527 E7.90308
G1 X154.607 Y112.385 E7.96819
G1 X154.81 Y112.493 E7.97585
G1 X156.54 Y113.496 E8.04246
G1 X156.744 Y113.625 E8.0505
G1 X158.462 Y114.799 E8.11981
G1 X158.653 Y114.94 E8.12772
G1 X160.254 Y116.215 E8.19589
G1 X160.434 Y116.37 E8.20381
G1 X161.94 Y117.761 E8.2721
G1 X162.109 Y117.928 E8.28001
G1 X163.503 Y119.419 E8.348
G1 X163.661 Y119.601 E8.35603
G1 X164.965 Y121.221 E8.4253
G1 X165.106 Y121.41 E8.43316
G1 X166.259 Y123.077 E8.50067
G1 X166.388 Y123.279 E8.50866
G1 X167.443 Y125.074 E8.57801
G1 X167.553 Y125.279 E8.58576
G1 X168.425 Y127.04 E8.65122
G1 X168.519 Y127.248 E8.65882
G1 X169.263 Y129.06 E8.72407
G1 X169.344 Y129.278 E8.73182
G1 X169.98 Y131.21 E8.79957
G1 X170.046 Y131.437 E8.80744
G1 X170.542 Y133.419 E8.8755
G1 X170.591 Y133.651 E8.8834
G1 X170.936 Y135.634 E8.95045
G1 X170.968 Y135.867 E8.95828
G1 X171.173 Y137.913 E9.02678
G1 X171.188 Y138.153 E9.03479
G1 X171.241 Y140.195 E9.10283
G1 X171.238 Y140.432 E9.11072
G1 X171.14 Y142.507 E9.17992
G1 X171.121 Y142.743 E9.18781
G1 X170.878 Y144.759 E9.25545
G1 X170.844 Y144.976 E9.26276
G1 X170.522 Y146.673 E9.3203
G1 X170.452 Y146.968 E9.3304
G1 X169.515 Y150.215 E9.44297
G1 X169.415 Y150.508 E9.45328
G1 X168.66 Y152.419 E9.52173
G1 X168.565 Y152.636 E9.52962
G1 X167.68 Y154.473 E9.59754
G1 X167.569 Y154.683 E9.60545
G1 X166.556 Y156.444 E9.67312
G1 X166.411 Y156.673 E9.68215
G1 X164.814 Y158.979 E9.77559
G1 X164.64 Y159.208 E9.78517
G1 X163.36 Y160.746 E9.85182
G1 X163.202 Y160.922 E9.8597
G1 X161.772 Y162.406 E9.92835
G1 X161.602 Y162.571 E9.93624
G1 X160.082 Y163.934 E10.00425
G1 X159.899 Y164.086 E10.01217
G1 X158.284 Y165.334 E10.08016
G1 X158.091 Y165.472 E10.08806
G1 X156.401 Y166.591 E10.15558
G1 X156.2 Y166.714 E10.16343
G1 X154.4 Y167.726 E10.23221
G1 X154.187 Y167.835 E10.24018
G1 X152.317 Y168.712 E10.30898
G1 X152.095 Y168.807 E10.31703
G1 X150.181 Y169.537 E10.38526
G1 X149.957 Y169.613 E10.39314
G1 X148.018 Y170.195 E10.46058
G1 X147.794 Y170.253 E10.46828
G1 X145.807 Y170.698 E10.53611
G1 X145.488 Y170.753 E10.54689
G1 X142.165 Y171.156 E10.6584
G1 X141.859 Y171.179 E10.66862
G1 X139.769 Y171.234 E10.73826
G1 X139.53 Y171.231 E10.74622
G1 X137.523 Y171.136 E10.81315
G1 X137.288 Y171.117 E10.821
G1 X135.229 Y170.869 E10.89009
G1 X134.96 Y170.825 E10.89917
G1 X132.28 Y170.271 E10.99032
G1 X131.973 Y170.191 E11.00089
G1 X129.539 Y169.434 E11.0858
G1 X129.288 Y169.345 E11.09467
G1 X127.353 Y168.564 E11.16418
G1 X127.142 Y168.47 E11.17187
G1 X125.393 Y167.615 E11.23672
G1 X125.19 Y167.507 E11.24438
G1 X123.46 Y166.504 E11.31099
G1 X123.256 Y166.375 E11.31903
G1 X121.538 Y165.201 E11.38835
G1 X121.347 Y165.06 E11.39625
G1 X119.746 Y163.785 E11.46443
G1 X119.566 Y163.63 E11.47234
G1 X118.06 Y162.239 E11.54063
G1 X117.891 Y162.072 E11.54855
G1 X116.496 Y160.58 E11.61658
G1 X116.335 Y160.393 E11.6248
G1 X114.987 Y158.712 E11.69658
G1 X114.847 Y158.525 E11.70436
G1 X113.739 Y156.92 E11.76933
G1 X113.611 Y156.719 E11.77726
G1 X112.558 Y154.925 E11.84656
G1 X112.449 Y154.724 E11.85417
G1 X111.575 Y152.962 E11.91969
G1 X111.481 Y152.752 E11.92735
G1 X110.737 Y150.94 E11.9926
G1 X110.656 Y150.722 E12.00035
G1 X110.02 Y148.79 E12.0681
G1 X109.954 Y148.563 E12.07597
G1 X109.458 Y146.581 E12.14403
G1 X109.409 Y146.349 E12.15193
G1 X109.064 Y144.366 E12.21898
G1 X109.032 Y144.133 E12.22681
G1 X108.827 Y142.087 E12.29531
G1 X108.812 Y141.847 E12.30332
G1 X108.759 Y139.805 E12.37136
G1 X108.762 Y139.568 E12.37925
G1 X108.86 Y137.493 E12.44845
G1 X108.879 Y137.257 E12.45634
G1 X109.122 Y135.241 E12.52398
G1 X109.156 Y135.024 E12.53129
G1 X109.478 Y133.327 E12.58883
G1 X109.548 Y133.032 E12.59893
G1 X110.485 Y129.785 E12.7115
G1 X110.585 Y129.492 E12.72181
G1 X111.34 Y127.581 E12.79026
G1 X111.435 Y127.364 E12.79815
G1 X112.32 Y125.527 E12.86607
G1 X112.431 Y125.317 E12.87398
G1 X113.444 Y123.556 E12.94165
G1 X113.569 Y123.357 E12.94948
G1 X114.717 Y121.659 E13.01776
G1 X114.859 Y121.464 E13.02579
G1 X116.161 Y119.816 E13.09575
G1 X116.317 Y119.633 E13.10376
G1 X117.674 Y118.155 E13.1706
G1 X117.839 Y117.988 E13.17842
G1 F600 E12.17842
;MESH:
G0 F2625 X123.287 Y116.708
G0 X124.165 Y117.843
G0 X131.841 Y115.793
G0 X142.971 Y113.009
G0 X142.981 Y112.91
;TYPE:WALL-INNER
G1 F600 E13.17842
G1 F900 X144.951 Y113.2 E13.24475
G1 X146.896 Y113.634 E13.31113
G1 X148.793 Y114.204 E13.37711
G1 X150.668 Y114.92 E13.44397
G1 X152.459 Y115.761 E13.50988
G1 X154.201 Y116.739 E13.57642
G1 X155.846 Y117.827 E13.64212
G1 X157.442 Y119.059 E13.70928
G1 X158.909 Y120.374 E13.7749
G1 X160.306 Y121.821 E13.8419
G1 X161.573 Y123.345 E13.90792
G1 X162.727 Y124.96 E13.97404
G1 X163.766 Y126.661 E14.04043
G1 X164.675 Y128.429 E14.10665
G1 X165.452 Y130.256 E14.17279
G1 X166.1 Y132.154 E14.23959
G1 X166.601 Y134.071 E14.30559
G1 X166.963 Y136.027 E14.37185
G1 X167.18 Y138.014 E14.43844
G1 X167.253 Y140 E14.50463
G1 X167.181 Y141.984 E14.57077
G1 X166.962 Y143.97 E14.63732
G1 X166.601 Y145.929 E14.70367
G1 X166.1 Y147.846 E14.76968
G1 X165.453 Y149.741 E14.83638
G1 X164.676 Y151.568 E14.90251
G1 X163.766 Y153.339 E14.96883
G1 X162.727 Y155.04 E15.03523
G1 X161.573 Y156.655 E15.10135
G1 X160.306 Y158.179 E15.16736
G1 X158.911 Y159.623 E15.23424
G1 X157.442 Y160.941 E15.29999
G1 X155.847 Y162.172 E15.3671
G1 X154.201 Y163.261 E15.43284
G1 X152.459 Y164.239 E15.49939
G1 X150.668 Y165.08 E15.5653
G1 X148.793 Y165.796 E15.63215
G1 X146.896 Y166.366 E15.69813
G1 X144.951 Y166.8 E15.76452
G1 X142.981 Y167.09 E15.83084
G1 X140.997 Y167.235 E15.89711
G1 X139.003 Y167.235 E15.96353
G1 X137.019 Y167.09 E16.02979
G1 X135.049 Y166.8 E16.09612
G1 X133.104 Y166.366 E16.1625
G1 X131.207 Y165.796 E16.22848
G1 X129.332 Y165.08 E16.29534
G1 X127.541 Y164.239 E16.36125
G1 X125.799 Y163.261 E16.42779
G1 X124.153 Y162.172 E16.49354
G1 X122.558 Y160.941 E16.56065
G1 X121.089 Y159.623 E16.62639
G1 X119.694 Y158.179 E16.69327
G1 X118.427 Y156.655 E16.75929
G1 X117.273 Y155.04 E16.82541
G1 X116.234 Y153.339 E16.8918
G1 X115.324 Y151.568 E16.95813
G1 X114.547 Y149.741 E17.02426
G1 X113.9 Y147.846 E17.09096
G1 X113.399 Y145.929 E17.15696
G1 X113.038 Y143.97 E17.22332
G1 X112.819 Y141.984 E17.28987
G1 X112.747 Y140 E17.356
G1 X112.82 Y138.014 E17.4222
G1 X113.037 Y136.027 E17.48878
G1 X113.399 Y134.071 E17.55504
G1 X113.9 Y132.154 E17.62104
G1 X114.548 Y130.256 E17.68785
G1 X115.325 Y128.429 E17.75398
G1 X116.234 Y126.661 E17.8202
G1 X117.273 Y124.96 E17.8866
G1 X118.427 Y123.345 E17.95272
G1 X119.694 Y121.821 E18.01874
G1 X121.091 Y120.374 E18.08573
G1 X122.558 Y119.059 E18.15136
G1 X124.154 Y117.827 E18.21852
G1 X125.799 Y116.739 E18.28421
G1 X127.541 Y115.761 E18.35076
G1 X129.332 Y114.92 E18.41667
G1 X131.207 Y114.204 E18.48353
G1 X133.104 Y113.634 E18.54951
G1 X135.049 Y113.2 E18.61589
G1 X137.019 Y112.91 E18.68222
G1 X139.003 Y112.765 E18.74848
G1 X140.997 Y112.765 E18.8149
G1 X142.981 Y112.91 E18.88117
G0 F2625 X142.971 Y113.009
G0 X152.747 Y117.921
G0 X154.42 Y118.976
G0 X156.006 Y120.156
G0 X157.495 Y121.456
G0 X158.88 Y122.868
G0 X160.151 Y124.383
G0 X161.3 Y125.992
G0 X162.322 Y127.683
G0 X163.21 Y129.45
G0 X163.957 Y131.281
G0 X164.561 Y133.164
G0 X165.017 Y135.087
G0 X165.323 Y137.041
G0 X165.475 Y139.012
G0 X165.475 Y139.571
G0 X165.383 Y142.966
G0 X165.284 Y142.955
G1 F900 X165.436 Y140.987 E18.94692
G1 X165.436 Y139.013 E19.01267
G1 X165.284 Y137.045 E19.07842
G1 X164.978 Y135.094 E19.1442
G1 X164.523 Y133.174 E19.20993
G1 X163.92 Y131.294 E19.2757
G1 X163.174 Y129.466 E19.34146
G1 X162.287 Y127.702 E19.40723
G1 X161.267 Y126.013 E19.47296
G1 X160.12 Y124.407 E19.5387
G1 X158.851 Y122.894 E19.60448
G1 X157.468 Y121.485 E19.67024
G1 X155.981 Y120.187 E19.73599
G1 X154.398 Y119.008 E19.80174
G1 X152.727 Y117.955 E19.86753
G1 X150.981 Y117.035 E19.93327
G1 X149.168 Y116.253 E19.99904
