;Generated by Cura LulzBot Edition GCodeWriter Version: 3.6.8
;FLAVOR:Marlin
;TIME:4978
;Filament used: 1.42625m
;Layer height: 0.14
;Generated with Cura_SteamEngine 3.6.8
M82 ;absolute extrusion mode
M221 S100
;This G-Code has been generated specifically for the LulzBot TAZ 6 with standard extruder
M73 P0 ; clear GLCD progress bar
M75 ; start GLCD timer
G26 ; clear potential 'probe fail' condition
M107 ; disable fans
M420 S0 ; disable previous leveling matrix
G90 ; absolute positioning
M82 ; set extruder to absolute mode
G92 E0 ; set extruder position to 0
M140 S60 ; start bed heating up
M109 R140 ; soften filament before homing Z
G28 ; Home all axis
G1 E-30 F100 ; retract filament
M109 R140 ; wait for extruder to reach wiping temp
G1 X-15 Y100 F3000 ; move above wiper pad
G1 Z1 ; push nozzle into wiper
G1 X-17 Y95 F1000 ; slow wipe
G1 X-17 Y90 F1000 ; slow wipe
G1 X-17 Y85 F1000 ; slow wipe
G1 X-15 Y90 F1000 ; slow wipe
G1 X-17 Y80 F1000 ; slow wipe
G1 X-15 Y95 F1000 ; slow wipe
G1 X-17 Y75 F2000 ; fast wipe
G1 X-15 Y65 F2000 ; fast wipe
G1 X-17 Y70 F2000 ; fast wipe
G1 X-15 Y60 F2000 ; fast wipe
G1 X-17 Y55 F2000 ; fast wipe
G1 X-15 Y50 F2000 ; fast wipe
G1 X-17 Y40 F2000 ; fast wipe
G1 X-15 Y45 F2000 ; fast wipe
G1 X-17 Y35 F2000 ; fast wipe
G1 X-15 Y40 F2000 ; fast wipe
G1 X-17 Y70 F2000 ; fast wipe
G1 X-15 Y30 Z2 F2000 ; fast wipe
G1 X-17 Y35 F2000 ; fast wipe
G1 X-15 Y25 F2000 ; fast wipe
G1 X-17 Y30 F2000 ; fast wipe
G1 X-15 Y25 Z1.5 F1000 ; slow wipe
G1 X-17 Y23 F1000 ; slow wipe
G1 Z10 ; raise extruder
M109 R140 ; wait for extruder to reach probe temp
G1 X-9 Y-9 ; move above first probe point
M204 S100 ; set probing acceleration
G29 ; start auto-leveling sequence
M420 S1 ; activate bed level matrix
M425 Z			     ; use measured Z backlash for compensation
M425 Z F0		     ; turn off measured Z backlash compensation. (if activated in the quality settings, this command will automatically be ignored)
M204 S500 ; restore standard acceleration
G1 X0 Y0 Z15 F5000 ; move up off last probe point
G4 S1 ; pause
M400 ; wait for moves to finish
M117 Heating... ; progress indicator message on LCD
M109 R200 ; wait for extruder to reach printing temp
M190 S60 ; wait for bed to reach printing temp
G1 Z2 E0 F75 ; prime tiny bit of filament into the nozzle
M117 TAZ 6 Printing... ; progress indicator message on LCD

G92 E0
G1 F600 E-1
;LAYER_COUNT:41
;LAYER:0
M107
G0 F2625 X82.839 Y82.988 Z0.425
;TYPE:SKIRT
G1 F600 E0
G1 F900 X84.336 Y81.577 E0.06852
G1 X84.516 Y81.42 E0.07648
G1 X86.121 Y80.116 E0.14537
G1 X86.313 Y79.971 E0.15338
G1 X87.993 Y78.801 E0.22158
G1 X88.192 Y78.673 E0.22946
G1 X89.959 Y77.625 E0.29789
G1 X90.164 Y77.513 E0.30567
G1 X91.928 Y76.631 E0.37137
G1 X92.143 Y76.533 E0.37924
G1 X94.068 Y75.74 E0.44859
G1 X94.292 Y75.657 E0.45654
G1 X96.214 Y75.026 E0.52393
G1 X96.471 Y74.953 E0.53283
G1 X99.146 Y74.312 E0.62446
G1 X99.512 Y74.247 E0.63684
G1 X102.835 Y73.844 E0.74834
G1 X103.141 Y73.821 E0.75856
G1 X105.231 Y73.766 E0.8282
G1 X105.47 Y73.769 E0.83617
G1 X107.477 Y73.864 E0.90309
G1 X107.712 Y73.883 E0.91095
G1 X109.771 Y74.131 E0.98003
G1 X110.04 Y74.175 E0.98911
G1 X112.72 Y74.729 E1.08027
G1 X112.879 Y74.766 E1.08571
G1 X118.226 Y76.154 E1.26972
G1 X120.884 Y76.731 E1.36032
G1 X123.54 Y77.227 E1.45032
G1 X128.972 Y78.006 E1.63312
G1 X134.419 Y78.475 E1.81523
G1 X139.901 Y78.637 E1.99792
G1 X145.363 Y78.49 E2.17992
G1 X150.829 Y78.031 E2.36264
G1 X156.243 Y77.266 E2.54477
G1 X161.608 Y76.197 E2.727
G1 X164.254 Y75.551 E2.81772
G1 X167.362 Y74.705 E2.92502
G1 X167.525 Y74.665 E2.93061
G1 X169.212 Y74.298 E2.98812
G1 X169.43 Y74.259 E2.9955
G1 X171.482 Y73.957 E3.06458
G1 X171.721 Y73.93 E3.0726
G1 X173.756 Y73.783 E3.14056
G1 X173.99 Y73.775 E3.14836
G1 X176.021 Y73.775 E3.21601
G1 X176.259 Y73.784 E3.22395
G1 X178.306 Y73.934 E3.29231
G1 X178.541 Y73.96 E3.30019
G1 X180.547 Y74.255 E3.36773
G1 X180.779 Y74.297 E3.37558
G1 X182.767 Y74.739 E3.44342
G1 X183.026 Y74.808 E3.45235
G1 X185.444 Y75.559 E3.53669
G1 X185.696 Y75.649 E3.5456
G1 X187.64 Y76.433 E3.61543
G1 X187.851 Y76.527 E3.62312
G1 X189.607 Y77.385 E3.68822
G1 X189.81 Y77.493 E3.69588
G1 X191.54 Y78.496 E3.76249
G1 X191.744 Y78.625 E3.77053
G1 X193.462 Y79.799 E3.83985
G1 X193.653 Y79.94 E3.84775
G1 X195.254 Y81.215 E3.91593
G1 X195.434 Y81.37 E3.92384
G1 X196.94 Y82.761 E3.99213
G1 X197.109 Y82.928 E4.00005
G1 X198.503 Y84.419 E4.06804
G1 X198.661 Y84.601 E4.07607
G1 X199.965 Y86.221 E4.14534
G1 X200.106 Y86.41 E4.15319
G1 X201.259 Y88.077 E4.22071
G1 X201.388 Y88.279 E4.22869
G1 X202.443 Y90.074 E4.29805
G1 X202.553 Y90.279 E4.3058
G1 X203.425 Y92.04 E4.37125
G1 X203.519 Y92.248 E4.37886
G1 X204.263 Y94.06 E4.44411
G1 X204.344 Y94.278 E4.45185
G1 X204.98 Y96.21 E4.51961
G1 X205.046 Y96.437 E4.52748
G1 X205.542 Y98.419 E4.59554
G1 X205.591 Y98.651 E4.60344
G1 X205.936 Y100.634 E4.67048
G1 X205.968 Y100.867 E4.67832
G1 X206.173 Y102.913 E4.74681
G1 X206.188 Y103.153 E4.75482
G1 X206.241 Y105.195 E4.82286
G1 X206.238 Y105.432 E4.83076
G1 X206.14 Y107.507 E4.89996
G1 X206.121 Y107.743 E4.90784
G1 X205.878 Y109.759 E4.97548
G1 X205.844 Y109.976 E4.9828
G1 X205.522 Y111.673 E5.04033
G1 X205.473 Y111.89 E5.04774
G1 X204.172 Y116.859 E5.21884
G1 X203.001 Y122.27 E5.40326
G1 X202.552 Y124.894 E5.49193
G1 X201.85 Y130.335 E5.67468
G1 X201.459 Y135.804 E5.85732
G1 X201.377 Y141.287 E6.03998
G1 X201.604 Y146.747 E6.22201
G1 X202.141 Y152.188 E6.40413
G1 X202.989 Y157.626 E6.58746
G1 X203.508 Y160.229 E6.67588
G1 X205.543 Y168.425 E6.95718
G1 X205.591 Y168.651 E6.96488
G1 X205.936 Y170.633 E7.03189
G1 X205.968 Y170.866 E7.03972
G1 X206.173 Y172.912 E7.10822
G1 X206.188 Y173.152 E7.11623
G1 X206.241 Y175.194 E7.18427
G1 X206.238 Y175.431 E7.19217
G1 X206.14 Y177.507 E7.26139
G1 X206.121 Y177.743 E7.26928
G1 X205.878 Y179.759 E7.33692
G1 X205.844 Y179.976 E7.34424
G1 X205.522 Y181.673 E7.40177
G1 X205.452 Y181.968 E7.41187
G1 X204.515 Y185.215 E7.52445
G1 X204.415 Y185.508 E7.53476
G1 X203.66 Y187.419 E7.6032
G1 X203.565 Y187.636 E7.61109
G1 X202.68 Y189.473 E7.67901
G1 X202.569 Y189.683 E7.68693
G1 X201.556 Y191.444 E7.7546
G1 X201.411 Y191.673 E7.76363
G1 X199.814 Y193.979 E7.85706
G1 X199.64 Y194.208 E7.86664
G1 X198.36 Y195.746 E7.9333
G1 X198.202 Y195.922 E7.94118
G1 X196.772 Y197.406 E8.00982
G1 X196.602 Y197.571 E8.01771
G1 X195.082 Y198.934 E8.08572
G1 X194.899 Y199.086 E8.09365
G1 X193.284 Y200.334 E8.16163
G1 X193.091 Y200.472 E8.16954
G1 X191.401 Y201.591 E8.23705
G1 X191.2 Y201.714 E8.2449
G1 X189.4 Y202.726 E8.31369
G1 X189.187 Y202.835 E8.32166
G1 X187.317 Y203.712 E8.39046
G1 X187.095 Y203.807 E8.3985
G1 X185.181 Y204.537 E8.46674
G1 X184.957 Y204.613 E8.47462
G1 X183.018 Y205.195 E8.54205
G1 X182.794 Y205.253 E8.54976
G1 X180.807 Y205.698 E8.61759
G1 X180.488 Y205.753 E8.62837
G1 X177.165 Y206.156 E8.73987
G1 X176.859 Y206.179 E8.75009
G1 X174.769 Y206.234 E8.81974
G1 X174.53 Y206.231 E8.8277
G1 X172.523 Y206.136 E8.89463
G1 X172.288 Y206.117 E8.90248
G1 X170.229 Y205.869 E8.97156
G1 X169.96 Y205.825 E8.98064
G1 X167.28 Y205.271 E9.0718
G1 X167.121 Y205.234 E9.07724
G1 X161.774 Y203.846 E9.26125
G1 X159.116 Y203.269 E9.35185
G1 X156.46 Y202.773 E9.44185
G1 X151.028 Y201.994 E9.62465
G1 X145.581 Y201.525 E9.80676
G1 X140.099 Y201.363 E9.98945
G1 X134.637 Y201.51 E10.17145
G1 X129.171 Y201.969 E10.35417
G1 X123.757 Y202.734 E10.5363
G1 X118.392 Y203.803 E10.71853
G1 X115.746 Y204.449 E10.80925
G1 X112.638 Y205.295 E10.91655
G1 X112.475 Y205.335 E10.92214
G1 X110.788 Y205.702 E10.97965
G1 X110.57 Y205.741 E10.98703
G1 X108.518 Y206.043 E11.05612
G1 X108.279 Y206.07 E11.06413
G1 X106.244 Y206.217 E11.13209
G1 X106.01 Y206.225 E11.13989
G1 X103.979 Y206.225 E11.20754
G1 X103.741 Y206.216 E11.21548
G1 X101.694 Y206.066 E11.28385
G1 X101.459 Y206.04 E11.29172
G1 X99.453 Y205.745 E11.35926
G1 X99.221 Y205.703 E11.36711
G1 X97.233 Y205.261 E11.43495
G1 X96.973 Y205.191 E11.44392
G1 X94.539 Y204.434 E11.52883
G1 X94.288 Y204.345 E11.5377
G1 X92.353 Y203.564 E11.60721
G1 X92.142 Y203.47 E11.6149
G1 X90.393 Y202.615 E11.67975
G1 X90.19 Y202.507 E11.68741
G1 X88.46 Y201.504 E11.75402
G1 X88.256 Y201.375 E11.76206
G1 X86.538 Y200.201 E11.83138
G1 X86.347 Y200.06 E11.83928
G1 X84.746 Y198.785 E11.90746
G1 X84.566 Y198.63 E11.91537
G1 X83.06 Y197.239 E11.98366
G1 X82.891 Y197.072 E11.99157
G1 X81.496 Y195.58 E12.05961
G1 X81.335 Y195.393 E12.06783
G1 X79.987 Y193.712 E12.13961
G1 X79.847 Y193.525 E12.14739
G1 X78.739 Y191.92 E12.21235
G1 X78.611 Y191.719 E12.22029
G1 X77.558 Y189.925 E12.28958
G1 X77.449 Y189.724 E12.2972
G1 X76.575 Y187.962 E12.36272
G1 X76.481 Y187.752 E12.37038
G1 X75.737 Y185.94 E12.43563
G1 X75.656 Y185.722 E12.44338
G1 X75.02 Y183.79 E12.51113
G1 X74.954 Y183.563 E12.519
G1 X74.458 Y181.581 E12.58706
G1 X74.409 Y181.349 E12.59496
G1 X74.064 Y179.366 E12.66201
G1 X74.032 Y179.133 E12.66984
G1 X73.827 Y177.087 E12.73833
G1 X73.812 Y176.847 E12.74634
G1 X73.759 Y174.805 E12.81439
G1 X73.762 Y174.568 E12.82228
G1 X73.86 Y172.493 E12.89148
G1 X73.879 Y172.257 E12.89937
G1 X74.122 Y170.241 E12.96701
G1 X74.156 Y170.024 E12.97432
G1 X74.478 Y168.327 E13.03186
G1 X74.527 Y168.11 E13.03927
G1 X75.828 Y163.141 E13.21037
G1 X76.999 Y157.73 E13.39478
G1 X77.448 Y155.106 E13.48346
G1 X78.15 Y149.665 E13.6662
G1 X78.541 Y144.196 E13.84884
G1 X78.623 Y138.713 E14.0315
G1 X78.396 Y133.253 E14.21353
G1 X77.859 Y127.812 E14.39566
G1 X77.011 Y122.374 E14.57899
G1 X76.493 Y119.777 E14.6672
G1 X74.456 Y111.576 E14.94868
G1 X74.411 Y111.366 E14.95583
G1 X74.11 Y109.688 E15.01262
G1 X74.078 Y109.468 E15.02002
G1 X73.845 Y107.343 E15.09123
G1 X73.828 Y107.103 E15.09925
G1 X73.758 Y105.114 E15.16554
G1 X73.758 Y104.881 E15.1733
G1 X73.833 Y102.838 E15.2414
G1 X73.85 Y102.604 E15.24922
G1 X74.071 Y100.584 E15.31691
G1 X74.106 Y100.348 E15.32485
G1 X74.475 Y98.344 E15.39273
G1 X74.548 Y98.032 E15.4034
G1 X75.485 Y94.785 E15.51598
G1 X75.585 Y94.492 E15.52629
G1 X76.34 Y92.581 E15.59473
G1 X76.435 Y92.364 E15.60262
G1 X77.32 Y90.527 E15.67054
G1 X77.431 Y90.317 E15.67846
G1 X78.444 Y88.556 E15.74613
G1 X78.569 Y88.357 E15.75396
G1 X79.717 Y86.659 E15.82223
G1 X79.859 Y86.464 E15.83027
G1 X81.161 Y84.816 E15.90023
G1 X81.317 Y84.633 E15.90824
G1 X82.674 Y83.155 E15.97507
G1 X82.839 Y82.988 E15.98289
G1 F600 E14.98289
;MESH:
G0 F2625 X88.287 Y81.708
G0 X89.165 Y82.843
G0 X96.841 Y80.793
G0 X107.971 Y78.009
G0 X107.981 Y77.91
;TYPE:WALL-INNER
G1 F600 E15.98289
G1 F900 X109.951 Y78.2 E16.04922
G1 X111.896 Y78.634 E16.11561
G1 X113.793 Y79.204 E16.18159
G1 X115.668 Y79.92 E16.24844
G1 X117.459 Y80.761 E16.31435
G1 X119.201 Y81.739 E16.3809
G1 X120.846 Y82.827 E16.44659
G1 X122.442 Y84.059 E16.51375
G1 X123.909 Y85.374 E16.57938
G1 X125.306 Y86.821 E16.64638
G1 X126.573 Y88.345 E16.71239
G1 X127.727 Y89.96 E16.77851
G1 X128.766 Y91.661 E16.84491
G1 X129.675 Y93.429 E16.91113
G1 X130.452 Y95.256 E16.97726
G1 X131.1 Y97.154 E17.04407
G1 X131.601 Y99.071 E17.11007
G1 X131.963 Y101.027 E17.17633
G1 X132.18 Y103.014 E17.24291
G1 X132.253 Y105 E17.30911
G1 X132.181 Y106.984 E17.37524
G1 X131.962 Y108.97 E17.4418
G1 X131.601 Y110.929 E17.50815
G1 X131.1 Y112.846 E17.57415
G1 X130.453 Y114.741 E17.64085
G1 X129.676 Y116.568 E17.70698
G1 X128.766 Y118.339 E17.77331
G1 X127.727 Y120.04 E17.8397
G1 X126.573 Y121.655 E17.90582
G1 X125.306 Y123.179 E17.97184
G1 X123.911 Y124.623 E18.03872
G1 X122.442 Y125.941 E18.10446
G1 X120.847 Y127.172 E18.17157
G1 X119.201 Y128.261 E18.23732
G1 X117.459 Y129.239 E18.30386
G1 X115.668 Y130.08 E18.36977
G1 X113.793 Y130.796 E18.43663
G1 X111.896 Y131.366 E18.50261
G1 X109.951 Y131.8 E18.56899
G1 X107.981 Y132.09 E18.63532
G1 X105.997 Y132.235 E18.70158
G1 X104.003 Y132.235 E18.768
G1 X102.019 Y132.09 E18.83427
G1 X100.049 Y131.8 E18.9006
G1 X98.104 Y131.366 E18.96698
G1 X96.207 Y130.796 E19.03296
G1 X94.332 Y130.08 E19.09981
G1 X92.541 Y129.239 E19.16572
G1 X90.799 Y128.261 E19.23227
G1 X89.153 Y127.172 E19.29801
G1 X87.558 Y125.941 E19.36513
G1 X86.089 Y124.623 E19.43087
G1 X84.694 Y123.179 E19.49775
G1 X83.427 Y121.655 E19.56376
G1 X82.273 Y120.04 E19.62988
G1 X81.234 Y118.339 E19.69628
G1 X80.324 Y116.568 E19.7626
G1 X79.547 Y114.741 E19.82874
G1 X78.9 Y112.846 E19.89544
G1 X78.399 Y110.929 E19.96144
G1 X78.038 Y108.97 E20.02779
G1 X77.819 Y106.984 E20.09435
G1 X77.747 Y105 E20.16048
G1 X77.82 Y103.014 E20.22668
G1 X78.037 Y101.027 E20.29326
G1 X78.399 Y99.071 E20.35952
G1 X78.9 Y97.154 E20.42552
G1 X79.548 Y95.256 E20.49233
G1 X80.325 Y93.429 E20.55846
G1 X81.234 Y91.661 E20.62468
G1 X82.273 Y89.96 E20.69107
G1 X83.427 Y88.345 E20.75719
G1 X84.694 Y86.821 E20.82321
G1 X86.091 Y85.374 E20.89021
G1 X87.558 Y84.059 E20.95583
G1 X89.154 Y82.827 E21.02299
G1 X90.799 Y81.739 E21.08869
G1 X92.541 Y80.761 E21.15524
G1 X94.332 Y79.92 E21.22114
G1 X96.207 Y79.204 E21.288
G1 X98.104 Y78.634 E21.35398
G1 X100.049 Y78.2 E21.42036
G1 X102.019 Y77.91 E21.48669
G1 X104.003 Y77.765 E21.55296
G1 X105.997 Y77.765 E21.61938
G1 X107.981 Y77.91 E21.68564
G0 F2625 X107.971 Y78.009
G0 X117.747 Y82.921
G0 X119.42 Y83.976
G0 X121.006 Y85.156
G0 X122.495 Y86.456
G0 X123.88 Y87.868
G0 X125.151 Y89.383
G0 X126.3 Y90.992
G0 X127.322 Y92.683
G0 X128.21 Y94.45
G0 X128.957 Y96.281
G0 X129.561 Y98.164
G0 X130.017 Y100.087
G0 X130.323 Y102.041
G0 X130.475 Y104.012
G0 X130.475 Y105.131
G0 X130.383 Y107.966
G0 X130.284 Y107.955
G1 F900 X130.436 Y105.987 E21.75139
G1 X130.436 Y104.013 E21.81715
G1 X130.284 Y102.045 E21.8829
G1 X129.978 Y100.094 E21.94868
G1 X129.523 Y98.174 E22.01441
G1 X128.92 Y96.294 E22.08017
G1 X128.174 Y94.466 E22.14594
G1 X127.287 Y92.702 E22.21171
G1 X126.267 Y91.013 E22.27743
G1 X125.12 Y89.407 E22.34317
G1 X123.851 Y87.894 E22.40895
G1 X122.468 Y86.485 E22.47472
G1 X120.981 Y85.187 E22.54046
G1 X119.398 Y84.008 E22.60621
G1 X117.727 Y82.955 E22.672
G1 X115.981 Y82.035 E22.73774
G1 X114.168 Y81.253 E22.80351
G1 X112.301 Y80.614 E22.86925
G1 X110.389 Y80.121 E22.93502
G1 X108.445 Y79.778 E23.00077
G1 X106.48 Y79.587 E23.06654
G1 X104.506 Y79.55 E23.1323
G1 X102.535 Y79.664 E23.19807
G1 X100.58 Y79.932 E23.2638
G1 X98.651 Y80.349 E23.32954
G1 X96.759 Y80.916 E23.39533
G1 X94.918 Y81.627 E23.46107
G1 X93.137 Y82.478 E23.52682
G1 X91.427 Y83.465 E23.59259
G1 X89.799 Y84.582 E23.65836
G1 X88.262 Y85.822 E23.72414
G1 X86.827 Y87.176 E23.78986
G1 X85.5 Y88.637 E23.8556
G1 X84.291 Y90.198 E23.92137
G1 X83.207 Y91.847 E23.98711
G1 X82.252 Y93.576 E24.0529
G1 X81.435 Y95.373 E24.11866
G1 X80.76 Y97.228 E24.18441
G1 X80.231 Y99.13 E24.25017
G1 X79.851 Y101.067 E24.31592
G1 X79.621 Y103.028 E24.38169
G1 X79.545 Y105 E24.44743
G1 X79.621 Y106.972 E24.51317
G1 X79.851 Y108.933 E24.57894
G1 X80.231 Y110.87 E24.64469
G1 X80.76 Y112.772 E24.71045
G1 X81.435 Y114.627 E24.7762
G1 X82.252 Y116.424 E24.84196
G1 X83.207 Y118.153 E24.90775
G1 X84.291 Y119.802 E24.97349
G1 X85.5 Y121.363 E25.03926
G1 X86.827 Y122.824 E25.105
G1 X88.262 Y124.178 E25.17072
G1 X89.799 Y125.418 E25.2365
G1 X91.427 Y126.535 E25.30227
G1 X93.137 Y127.522 E25.36804
G1 X94.918 Y128.373 E25.43379
G1 X96.759 Y129.084 E25.49953
G1 X98.651 Y129.651 E25.56532
G1 X100.58 Y130.068 E25.63106
G1 X102.535 Y130.336 E25.69679
G1 X104.506 Y130.45 E25.76255
G1 X106.48 Y130.413 E25.82832
G1 X108.445 Y130.222 E25.89408
G1 X110.389 Y129.879 E25.95984
G1 X112.301 Y129.386 E26.02561
G1 X114.168 Y128.747 E26.09134
G1 X115.981 Y127.965 E26.15711
G1 X117.727 Y127.045 E26.22285
G1 X119.398 Y125.992 E26.28864
G1 X120.981 Y124.813 E26.35439
G1 X122.468 Y123.515 E26.42014
G1 X123.851 Y122.106 E26.48591
G1 X125.12 Y120.593 E26.55169
G1 X126.267 Y118.987 E26.61743
G1 X127.287 Y117.298 E26.68315
G1 X128.174 Y115.534 E26.74892
G1 X128.92 Y113.706 E26.81469
G1 X129.523 Y111.826 E26.88045
G1 X129.978 Y109.906 E26.94618
G1 X130.284 Y107.955 E27.01196
G0 F2625 X129.787 Y107.897
;TYPE:WALL-OUTER
G1 F900 X129.936 Y105.968 E27.07641
G1 X129.936 Y104.032 E27.1409
G1 X129.787 Y102.103 E27.20535
G1 X129.487 Y100.191 E27.26981
G1 X129.041 Y98.308 E27.33427
G1 X128.45 Y96.465 E27.39874
G1 X127.718 Y94.673 E27.46322
